!!!!SEGMENT: Bau1002c-Missa_En_douleur_en_tristesse-Credo.krn
!!!id: Bau1002c
!!!OTL: Credo
!!!AGN: Mass; Credo
!!!voices: 2-5
!!!COM: Noel Bauldeweyn
!!!OPR: Missa En douleur en tristesse
**kern	**kern	**kern	**kern	**kern
*part5	*part4	*part3	*part2	*part1
*staff5	*staff4	*staff3	*staff2	*staff1
*I"Bassus	*I"Tenor II	*I"Tenor I	*I"Altus	*I"Superius
*I'B	*I'T. II	*I'T. I	*I'A	*I'S
*clefF4	*clefGv2	*clefGv2	*clefGv2	*clefG2
*k[b-]	*k[b-]	*k[b-]	*k[b-]	*k[b-]
*F:	*F:	*F:	*F:	*F:
*M2/1	*M2/1	*M2/1	*M2/1	*M2/1
*met(C|)	*met(C|)	*met(C|)	*met(C|)	*met(C|)
!!section: Patrem
!!!OMD: Patrem
=1	=1	=1	=1	=1
!	!LO:TX:a:t=Canon&colon; tenor II/tenor I at the unison	!	!	!
0r	0r	0r	1g	1g
.	.	.	2g	2b-y
.	.	.	2g	2b-y
=2	=2	=2	=2	=2
0r	0r	0r	2f	2a
.	.	.	2d	2a
.	.	.	1e	1g
=3	=3	=3	=3	=3
1G	2r	0r	1d	1dd
.	2G	.	.	.
2G	2B-y	.	2r	1d
2G	2B-y	.	2B-y	.
=4	=4	=4	=4	=4
2F	2A	0r	2c	1f
2D	2A	.	2d	.
2.E-X	1G	.	4B-y	2.g
.	.	.	4c	.
.	.	.	4d	.
8DL	.	.	4e	4a
8CJ	.	.	.	.
=5	=5	=5	=5	=5
2BB-y	1d	2r	2f	1b-y
1GG	.	2G	2.g	.
.	1r	2B-y	.	1g
.	.	.	4f	.
[2G	.	2B-y	[2d	.
=6	=6	=6	=6	=6
2G]	2r	2A	4d]	1a
.	.	.	4e	.
2F#i	2d	2A	2f	.
1G	2d	1G	2.B-y	1b-y
.	[2d	.	.	.
.	.	.	4G	.
=7	=7	=7	=7	=7
2D	2d]	1d	2A	2a
2G	2B-y	.	2G	2b-y
4F	2c	1r	2A	2a
4E	.	.	.	.
4D	[2d	.	2F	[2b-y
4C	.	.	.	.
=8	=8	=8	=8	=8
2.BB-y	4d]	2r	1F	2b-]
.	4c	.	.	.
.	1B-y	2d	.	4a
4C	.	.	.	4g
1D	.	2d	2r	1f
.	2A	[2d	[2f	.
=9	=9	=9	=9	=9
1BB-y	1B-y	2d]	2f]	1d
.	.	2B-y	2d	.
2AA	1r	2c	2e	2r
[2BB-y	.	[2d	2d	2dd
=10	=10	=10	=10	=10
2BB-]	0r	4d]	1f	2dd
.	.	4c	.	.
1D	.	1B-y	.	2dd
.	.	.	2d	2b-y
2C	.	2A	2e	2cc
=11	=11	=11	=11	=11
4BB-y	0r	1B-y	2d	1dd
4C	.	.	.	.
4D	.	.	4c	.
4E	.	.	4B-y	.
2F	.	1r	2A	2cc
2G	.	.	2B-y	[2b-y
=12	=12	=12	=12	=12
1F	0r	0r	1c	2b-]
.	.	.	.	2a
2.G	.	.	1B-y	1b-y
4G	.	.	.	.
=13	=13	=13	=13	=13
2B-y	2.G	0r	2r	0r
2B-y	.	.	1d	.
.	4G	.	.	.
1BB-y	2B-y	.	.	.
.	2B-y	.	2d	.
=14	=14	=14	=14	=14
2C	1A	0r	2e	2r
2D	.	.	2f	2a
1GG	2G	.	1g	2b-y
.	2G	.	.	2b-y
=15	=15	=15	=15	=15
2r	1d	2.G	2g	2g
1G	.	.	2g	1b-y
.	.	4G	.	.
.	1r	2B-y	1d	.
2G	.	2B-y	.	2g
=16	=16	=16	=16	=16
2F	1r	1A	2r	2a
2D	.	.	2d	2f
2E	2r	2G	2c	1g
2G	[2d	2G	[2B-y	.
=17	=17	=17	=17	=17
2.GG	2d]	1d	4B-]	1.b-y
.	.	.	4A	.
.	2B-y	.	1G	.
4AA	.	.	.	.
2BB-y	2d	1r	.	.
2C	2e-i	.	2E	2g
=18	=18	=18	=18	=18
1AA	2c	1r	1F#i	1a
.	2c	.	.	.
1GG	1B-y	2r	1G	1d
.	.	[2d	.	.
=19	=19	=19	=19	=19
0r	0r	2d]	2.G	2.dd
.	.	2B-y	.	.
.	.	.	4A	4cc
.	.	2d	2B-y	4b-y
.	.	.	.	4a
.	.	2e-i	2c	[2g
=20	=20	=20	=20	=20
1r	1r	2c	2A	4g]
.	.	.	.	8f#iL
.	.	.	.	8eJ
.	.	2c	2A	2f#i
2r	2r	1B-y	[1G	[1g
2G	2d	.	.	.
=21	=21	=21	=21	=21
2G	2B-y	0r	1G]	1g]
1B-y	1d	.	.	.
.	.	.	1r	1r
2A	2c	.	.	.
=22	=22	=22	=22	=22
2G	2B-y	1r	1r	1r
2F#i	2A	.	.	.
[1G	1G	2r	2r	2r
.	.	2B-y	[2d	2g
=23	=23	=23	=23	=23
1G]	0r	2B-y	2d]	2g
.	.	1d	2d	1b-y
1r	.	.	2.f	.
.	.	2c	.	2a
.	.	.	4e	.
=24	=24	=24	=24	=24
1r	1r	2B-y	2d	2g
.	.	2A	2c	2f
1G	1B-y	1G	2d	1g
.	.	.	4d	.
.	.	.	4e	.
=25	=25	=25	=25	=25
2F	2.d	0r	4f	0r
.	.	.	4g	.
2D	.	.	2.a	.
.	4c	.	.	.
1E	2B-y	.	.	.
.	.	.	4g	.
.	2G	.	[2g	.
=26	=26	=26	=26	=26
1D	1A	1r	4g]	1r
.	.	.	4f#i	.
.	.	.	4f#i	.
.	.	.	4e	.
2r	1G	1B-y	1g	2.d
2G	.	.	.	.
.	.	.	.	4e
=27	=27	=27	=27	=27
2F	0r	2.d	2r	4f
.	.	.	.	4g
2D	.	.	2f	2.a
.	.	4c	.	.
1E	.	2B-y	2e	.
.	.	.	.	4g
.	.	2G	2c	[2g
=28	=28	=28	=28	=28
1D	1r	1A	2d	2g]
.	.	.	2d	2f#i
2.GG	2.d	1G	2.B-y	1g
4GG	4d	.	4B-y	.
=29	=29	=29	=29	=29
2C	2c	0r	2G	2.e
2C	2c	.	2G	.
.	.	.	.	4e
[1D	2A	.	[1F	2.f
.	2B-y	.	.	.
.	.	.	.	4g
=30	=30	=30	=30	=30
1D]	2A	1r	1F]	2a
.	2.B-y	.	.	2f
1r	.	2.d	1r	4g
.	4A	.	.	4f
.	4G	.	.	4e
.	4F	4d	.	4d
=31	=31	=31	=31	=31
1C	2G	2c	1r	2e
.	2G	2c	.	2e
1D	1F	2A	1d	1f
.	.	2B-y	.	.
=32	=32	=32	=32	=32
2D	1r	2A	2d	2d
4GG	.	2.B-y	2d	1dd
4AA	.	.	.	.
4BB-y	1d	.	1B-y	.
4C	.	4A	.	.
2D	.	4G	.	2b-y
.	.	4F	.	.
=33	=33	=33	=33	=33
2C	2e	2G	2r	2cc
2BB-y	1d	2G	2B-y	2dd
1D	.	1F	2A	2a
.	2B-y	.	2F	[2b-y
=34	=34	=34	=34	=34
1E-i	1c	1r	1G	2b-]
.	.	.	.	4a
.	.	.	.	4g
1D	1d	1d	1A	1f
=35	=35	=35	=35	=35
2C	0r	2e	0r	2g
2D	.	1d	.	1f
1BB-y	.	.	.	.
.	.	2B-y	.	2d
=36	=36	=36	=36	=36
1AA	1r	1c	1A	1e
1r	2r	1d	[1B-y	2.d
.	2d	.	.	.
.	.	.	.	4e
=37	=37	=37	=37	=37
0r	2d	0r	2B-]	4f
.	.	.	.	4g
.	2e	.	2A	2.a
.	2d	.	2F	.
.	.	.	.	4g
.	2B-y	.	2G	[2g
=38	=38	=38	=38	=38
1r	2c	1r	2E	2g]
.	2c	.	2E	4f#i
.	.	.	.	4e
1A	1d	2r	1D	1f#i
.	.	2d	.	.
=39	=39	=39	=39	=39
2B-y	0r	2d	0r	2g
2A	.	2e	.	1a
2F	.	2d	.	.
2G	.	2B-y	.	[2b-y
=40	=40	=40	=40	=40
2E	0r	2c	1G	2b-]
2E	.	2c	.	4a
.	.	.	.	4g
1D	.	1d	1A	1f
=41	=41	=41	=41	=41
1F	0r	0r	2A	2r
.	.	.	2.c	2a
2.C	.	.	.	1cc
.	.	.	4B-y	.
.	.	.	2A	.
4D	.	.	.	.
=42	=42	=42	=42	=42
2E	0r	0r	2G	2b-y
2F	.	.	2A	1a
1G	.	.	1B-y	.
.	.	.	.	2g
=43	=43	=43	=43	=43
2D	0r	0r	1A	1a
2.F	.	.	.	.
.	.	.	2d	2r
4E	.	.	.	.
[2D	.	.	[2f	[2a
=44	=44	=44	=44	=44
2D]	0r	0r	2f]	2a]
2C	.	.	2e	2cc
2D	.	.	2d	2b-y
2A	.	.	2c	[2a
=45	=45	=45	=45	=45
2F	0r	0r	2d	2a]
2G	.	.	2B-y	2g
1D	.	.	1A	[1a
=46	=46	=46	=46	=46
2r	0r	0r	1d	2a]
2D	.	.	.	2f
2G	.	.	2B-y	2g
2F	.	.	2c	2a
=47	=47	=47	=47	=47
2D	0r	0r	2d	2f
2G	.	.	2B-y	2g
2F	.	.	2c	1a
[2D	.	.	[2d	.
=48	=48	=48	=48	=48
2D]	0r	0r	2d]	2f
1E	.	.	2B-y	2g
.	.	.	1c	1e
2C	.	.	.	.
=49	=49	=49	=49	=49
1D	1r	0r	1A	1d
1GG	2.d	.	1G	1r
.	4d	.	.	.
=50	=50	=50	=50	=50
2.D	1f	0r	2.F	2.d
4D	.	.	4F	4d
2C	2e	.	2c	2e
2D	[2d	.	2B-y	2f
=51	=51	=51	=51	=51
1E	2d]	1r	1G	1g
.	2c#i	.	.	.
1D	1d	2.d	1A	1f
.	.	4d	.	.
=52	=52	=52	=52	=52
2r	2B-y	1f	2r	1d
2D	2B-y	.	2F	.
2C	2c	2e	2A	1r
2BB-y	2d	[2d	2B-y	.
=53	=53	=53	=53	=53
1E-i	2B-y	2d]	2G	1r
.	2c	2c	1g	.
1D	1A	1d	.	2.a
.	.	.	2f#i	.
.	.	.	.	4a
=54	=54	=54	=54	=54
1GG	1G	2B-y	2.g	2b-y
.	.	2B-y	.	2b-y
.	.	.	4d	.
2C	1r	2c	2e	2a
2BB-y	.	2d	2f	[2b-y
=55	=55	=55	=55	=55
2E-i	0r	2B-y	1e-X	4b-]
.	.	.	.	4a
2C	.	2c	.	1g
1D	.	1A	1d	.
.	.	.	.	2f#i
=56	=56	=56	=56	=56
0GG	1r	1G	1B-y	1g
.	2d	1r	1G	2b-y
.	2d	.	.	2b-y
=57	=57	=57	=57	=57
0r	2.f	0r	1F	2.a
.	4f	.	.	4a
.	2e	.	2c	2g
.	[2d	.	2d	2f
=58	=58	=58	=58	=58
1AA	2d]	1r	2A	1e
.	2c#i	.	2a	.
2BB-y	1d	2d	2.f	[1d
[2B-y	.	2d	.	.
.	.	.	4e	.
=59	=59	=59	=59	=59
2B-]	0r	2.f	2d	1d]
2A	.	.	2c	.
.	.	4f	.	.
2G	.	2e	2B-y	1r
2F	.	[2d	2A	.
=60	=60	=60	=60	=60
1E	1r	2d]	1G	1r
.	.	2c#i	.	.
1D	2r	1d	1A	1f
.	[2d	.	.	.
=61	=61	=61	=61	=61
0r	2d]	0r	2B-y	1g
.	2e	.	2c	.
.	2d	.	2B-y	2.b-y
.	2d	.	2G	.
.	.	.	.	4a
=62	=62	=62	=62	=62
1r	2B-y	1r	2G	2g
.	2c	.	2A	2f
2r	1d	2r	[1G	[1g
[2G	.	[2d	.	.
=63	=63	=63	=63	=63
2G]	0r	2d]	1G]	1g]
2C	.	2e	.	.
2G	.	2d	1r	1r
2F	.	2d	.	.
=64	=64	=64	=64	=64
2D	1r	2B-y	1r	1r
2E	.	2c	.	.
[1D	2d	1d	1A	1f
.	2d	.	.	.
=65	=65	=65	=65	=65
2D]	2d	0r	2A	2d
2BB-y	2f	.	2B-y	2d
2C	2e	.	2A	2e
2D	[2d	.	2F	[2a
=66	=66	=66	=66	=66
1E-i	2d]	1r	2G	4a]
.	.	.	.	4g
.	2c	.	2G	1g
1D	1d	2d	1A	.
.	.	2d	.	2f#i
=67	=67	=67	=67	=67
2GG	1B-y	2d	2r	2g
2D	.	2f	2d	2r
2C	2c	2e	2e	1r
2BB-y	2d	[2d	2f	.
=68	=68	=68	=68	=68
1E-i	2B-y	2d]	2g	1r
.	2c	2c	1g	.
1D	1A	1d	.	2r
.	.	.	2f#i	2a
=69	=69	=69	=69	=69
2GG	1G	1B-y	2g	2b-y
2G	.	.	2d	2g
2F	1r	2c	1f	2r
2D	.	2d	.	[2a
=70	=70	=70	=70	=70
2E	0r	2B-y	1e	4a]
.	.	.	.	4g
2C	.	2c	.	2.g
1D	.	1A	1d	.
.	.	.	.	8f#iL
.	.	.	.	8eJ
.	.	.	.	2f#i
=71	=71	=71	=71	=71
00GG	00G	00G	00d	00g
=72||	=72||	=72||	=72||	=72||
*M2/1	*M2/1	*M2/1	*M2/1	*M2/1
*met(C|)	*met(C|)	*met(C|)	*met(C|)	*met(C|)
!!section: Et incarnatus est 
!!!OMD: Et incarnatus est
!	!LO:TX:a:t=Canon&colon; tenor II/tenor I at the unison	!	!	!
1G	1G	0r	1d	1g
1G	1B-y	.	1d	1g
=73	=73	=73	=73	=73
1D	1A	0r	1d	1f
1E	1G	.	1B-y	1g
=74	=74	=74	=74	=74
1C	1G	1G	1c	1e
1BB-y	1d	1B-y	[1F	1d
=75	=75	=75	=75	=75
1D	1r	1A	1F]	2r
.	.	.	.	2a
2GG	1d	1G	2r	2.b-y
2GG	.	.	2B-y	.
.	.	.	.	4b-y
=76	=76	=76	=76	=76
0G	2d	1G	2B-y	2b-y
.	2d	.	2B-y	2.dd
.	1B-y	1d	4B-y	.
.	.	.	4c	4cc
.	.	.	4d	[2b-y
.	.	.	4e	.
=77	=77	=77	=77	=77
1F	1c	1r	1f	2b-]
.	.	.	.	2a
[1BB-y	1B-y	1d	2.f	[1b-y
.	.	.	4e	.
=78	=78	=78	=78	=78
1BB-]	0r	2d	4d	1b-]
.	.	.	4c	.
.	.	2d	2.B-y	.
1GG	.	1B-y	.	1r
.	.	.	4A	.
.	.	.	[2G	.
=79	=79	=79	=79	=79
1AA	1r	1c	4G]	1a
.	.	.	8F#iL	.
.	.	.	8EJ	.
.	.	.	2F#i	.
2GG	2d	1B-y	2G	2.b-y
[2G	2d	.	[2B-y	.
.	.	.	.	4a
=80	=80	=80	=80	=80
2G]	1d	0r	2B-]	2g
2F	.	.	2A	4a
.	.	.	.	4f
2E	2c	.	2G	2g
2D	[2B-y	.	[2F	2d
=81	=81	=81	=81	=81
1C	2B-]	1r	2F]	1e
.	2A	.	2E	.
[1BB-y	1B-y	2d	1F	1d
.	.	2d	.	.
=82	=82	=82	=82	=82
1BB-]	0r	1d	1f	0r
1r	.	2c	2e	.
.	.	[2B-y	2d	.
=83	=83	=83	=83	=83
1r	0r	2B-]	1c	1r
.	.	2A	.	.
[1G	.	1B-y	1B-y	[1b-y
=84	=84	=84	=84	=84
1G]	1B-y	0r	1d	1b-]
1D	1d	.	[1f	[1a
=85	=85	=85	=85	=85
1F	1c	0r	1f]	1a]
1G	[1B-y	.	1d	[1g
=86	=86	=86	=86	=86
1E	2B-]	1B-y	0r	1g]
.	2G	.	.	.
2D	1A	1d	.	1f
2F	.	.	.	.
=87	=87	=87	=87	=87
2.C	0G	1c	1.e-X	1.g
4D	.	.	.	.
4E	.	[1B-y	.	.
4F	.	.	.	.
[2G	.	.	2d	4f
.	.	.	.	4e
=88	=88	=88	=88	=88
2G]	0r	2B-]	2B-y	2d
2E	.	2G	2c	1g
1D	.	1A	1d	.
.	.	.	.	2f#i
=89	=89	=89	=89	=89
00GG	00G	00G	00d	00g
=90||	=90||	=90||	=90||	=90||
*	*	*	*M2/1	*M2/1
*	*	*	*met(C|)	*met(C|)
!!section: Crucifixus
!!!OMD: Crucifixus
0r	0r	0r	1d	0r
.	.	.	1f	.
=91	=91	=91	=91	=91
0r	0r	0r	1e	1g
.	.	.	1d	1b-y
=92	=92	=92	=92	=92
0r	0r	0r	1f	1a
.	.	.	1e	1g
=93	=93	=93	=93	=93
0r	0r	0r	1d	2.dd
.	.	.	.	4dd
.	.	.	1f	2dd
.	.	.	.	[2cc
=94	=94	=94	=94	=94
0r	0r	0r	2e	4cc]
.	.	.	.	4b-y
.	.	.	2d	1b-y
.	.	.	1c	.
.	.	.	.	2a
=95	=95	=95	=95	=95
0r	0r	0r	2B-y	1b-y
.	.	.	1d	.
.	.	.	.	2r
.	.	.	[2e-i	2b-y
=96	=96	=96	=96	=96
0r	0r	0r	2e-]	2.b-y
.	.	.	2d	.
.	.	.	.	4b-y
.	.	.	2c	2a
.	.	.	2B-y	[2g
=97	=97	=97	=97	=97
0r	0r	0r	1A	2g]
.	.	.	.	2f
.	.	.	1G	2e
.	.	.	.	4d
.	.	.	.	4e
=98	=98	=98	=98	=98
0r	0r	0r	1d	4f
.	.	.	.	4g
.	.	.	.	4a
.	.	.	.	4b-y
.	.	.	1c	4cc
.	.	.	.	4b-y
.	.	.	.	4a
.	.	.	.	4g
=99	=99	=99	=99	=99
0r	0r	0r	2A	2f
.	.	.	2B-y	2g
.	.	.	2A	2a
.	.	.	[2B-y	[2g
=100	=100	=100	=100	=100
0r	0r	0r	4B-]	4g]
.	.	.	4A	4f
.	.	.	2F	1f
.	.	.	1G	.
.	.	.	.	2e
=101	=101	=101	=101	=101
0r	0r	0r	2F	1a
.	.	.	2f	.
.	.	.	2e	2g
.	.	.	[2d	2f
=102	=102	=102	=102	=102
0r	0r	0r	2d]	1e
.	.	.	2c#i	.
.	.	.	[1d	1d
=103	=103	=103	=103	=103
0r	0r	0r	1d]	2r
.	.	.	.	2a
.	.	.	2r	2g
.	.	.	2d	2f
=104	=104	=104	=104	=104
0r	0r	0r	2B-y	1g
.	.	.	2B-y	.
.	.	.	1c	1a
=105	=105	=105	=105	=105
0r	0r	0r	1d	2r
.	.	.	.	2a
.	.	.	2r	2f
.	.	.	2d	2f
=106	=106	=106	=106	=106
0r	0r	0r	2B-y	1g
.	.	.	2B-y	.
.	.	.	1c	1a
=107	=107	=107	=107	=107
0r	0r	0r	1d	2r
.	.	.	.	2a
.	.	.	2r	1b-y
.	.	.	2d	.
=108	=108	=108	=108	=108
0r	0r	0r	1e	2g
.	.	.	.	2cc
.	.	.	2d	2b-y
.	.	.	[2c	[2a
=109	=109	=109	=109	=109
0r	0r	0r	4c]	4a]
.	.	.	4B-y	4g
.	.	.	4A	1g
.	.	.	4G	.
.	.	.	1A	.
.	.	.	.	2f#i
=110	=110	=110	=110	=110
00r	00r	00r	00G	00g
=111||	=111||	=111||	=111||	=111||
*M2/1	*	*M2/1	*	*
*met(C|)	*	*met(C|)	*	*
!!section: Et ascendit
!!!OMD: Et ascendit
1G	0r	0r	0r	0r
1B-y	.	.	.	.
=112	=112	=112	=112	=112
1A	0r	1r	0r	0r
2G	.	1G	.	.
[2B-y	.	.	.	.
=113	=113	=113	=113	=113
4B-]	0r	1B-y	0r	0r
4A	.	.	.	.
1G	.	.	.	.
.	.	1A	.	.
2F	.	.	.	.
=114	=114	=114	=114	=114
2E	0r	2G	0r	0r
2D	.	2.B-y	.	.
2C	.	.	.	.
.	.	4A	.	.
2BB-y	.	[2G	.	.
=115	=115	=115	=115	=115
1AA	0r	2G]	0r	0r
.	.	2F	.	.
2.GG	.	2E	.	.
.	.	[2D	.	.
4AA	.	.	.	.
=116	=116	=116	=116	=116
4BB-y	0r	4D]	0r	0r
4C	.	4E	.	.
4D	.	4F	.	.
4E	.	4G	.	.
1F	.	4A	.	.
.	.	4B-y	.	.
.	.	[2c	.	.
=117	=117	=117	=117	=117
2D	0r	4c]	0r	0r
.	.	4B-y	.	.
2E	.	1B-y	.	.
1C	.	.	.	.
.	.	2A	.	.
=118	=118	=118	=118	=118
2.BB-y	0r	1B-y	0r	0r
4C	.	.	.	.
2D	.	1r	.	.
2E	.	.	.	.
=119	=119	=119	=119	=119
2F	0r	1d	0r	0r
2G	.	.	.	.
1C	.	1e	.	.
=120	=120	=120	=120	=120
2r	0r	2d	0r	0r
1G	.	2d	.	.
.	.	2B-y	.	.
2E	.	2c	.	.
=121	=121	=121	=121	=121
2F	0r	1d	0r	0r
1G	.	.	.	.
.	.	2B-y	.	.
2A	.	2c	.	.
=122	=122	=122	=122	=122
2.F	0r	1A	0r	0r
8EL	.	.	.	.
8DJ	.	.	.	.
1E	.	1G	.	.
=123	=123	=123	=123	=123
1D	0r	2r	0r	0r
.	.	2A	.	.
2r	.	2.B-y	.	.
2D	.	.	.	.
.	.	4B-y	.	.
=124	=124	=124	=124	=124
2.E	0r	2G	0r	0r
.	.	2G	.	.
4E	.	.	.	.
2C	.	2.c	.	.
2C	.	.	.	.
.	.	4c	.	.
=125	=125	=125	=125	=125
2.F	0r	1A	0r	0r
4F	.	.	.	.
1D	.	2r	.	.
.	.	2d	.	.
=126	=126	=126	=126	=126
2G	0r	2d	0r	0r
2G	.	2B-y	.	.
2E	.	2c	.	.
2F	.	2A	.	.
=127	=127	=127	=127	=127
2D	0r	2B-y	0r	0r
2E	.	2c	.	.
2F	.	1A	.	.
2D	.	.	.	.
=128	=128	=128	=128	=128
1B-y	0r	2r	0r	0r
.	.	2d	.	.
1A	.	2c	.	.
.	.	[2A	.	.
=129	=129	=129	=129	=129
2F	0r	2A]	0r	0r
2G	.	1d	.	.
1E	.	.	.	.
.	.	2c#i	.	.
=130	=130	=130	=130	=130
0D	0r	1d	0r	0r
.	.	2r	.	.
.	.	2A	.	.
=131	=131	=131	=131	=131
2r	0r	2B-y	0r	0r
2D	.	2B-y	.	.
2E	.	2G	.	.
2E	.	2G	.	.
=132	=132	=132	=132	=132
1C	0r	2.c	0r	0r
.	.	4B-y	.	.
1D	.	4A	.	.
.	.	4G	.	.
.	.	2B-y	.	.
=133	=133	=133	=133	=133
2C	0r	2A	0r	0r
2BB-y	.	2.G	.	.
1AA	.	.	.	.
.	.	4F#i	.	.
.	.	4F#i	.	.
.	.	4E	.	.
=134	=134	=134	=134	=134
00GG	00r	00G	00r	00r
=135||	=135||	=135||	=135||	=135||
*M2/1	*M2/1	*M2/1	*M2/1	*M2/1
*met(C|)	*met(C|)	*met(C|)	*met(C|)	*met(C|)
!!section: Et in spiritum
!!!OMD: Et in spiritum
!	!LO:TX:a:t=Canon&colon; tenor II/tenor I at the unison	!	!	!
0r	0r	0r	1.g	1.g
.	.	.	2g	2b-y
=136	=136	=136	=136	=136
0r	0r	0r	2f	2a
.	.	.	2e	2g
.	.	.	1d	1dd
=137	=137	=137	=137	=137
0r	1.G	0r	1.B-y	1.dd
.	2B-y	.	2B-y	2dd
=138	=138	=138	=138	=138
0r	2A	0r	2F	2cc
.	2G	.	2G	2b-y
.	[1d	.	1D	1a
=139	=139	=139	=139	=139
1.G	1d]	1.G	0r	1.b-y
.	1r	.	.	.
2G	.	2B-y	.	2g
=140	=140	=140	=140	=140
2F	0r	2A	0r	2a
2E	.	2G	.	2b-y
1D	.	[1d	.	1f
=141	=141	=141	=141	=141
1.B-y	1.G	1d]	1.d	0r
.	.	1r	.	.
2B-y	2B-y	.	2d	.
=142	=142	=142	=142	=142
2F	2A	0r	2c	2r
2G	2G	.	2B-y	1g
1D	1d	.	1A	.
.	.	.	.	2f
=143	=143	=143	=143	=143
1.B-y	0r	1.G	4G	2g
.	.	.	4A	.
.	.	.	4B-y	1dd
.	.	.	4c	.
.	.	.	4d	.
.	.	.	4c	.
2B-y	.	2B-y	4d	2dd
.	.	.	4e	.
=144	=144	=144	=144	=144
2F	1r	2A	4f	2cc
.	.	.	4d	.
2G	.	2G	1g	2b-y
1D	2r	1d	.	1a
.	2d	.	2f#i	.
=145	=145	=145	=145	=145
1GG	2d	0r	1g	1g
.	2d	.	.	.
2r	2c	.	2r	2r
2G	[2B-y	.	2g	2b-y
=146	=146	=146	=146	=146
2E	2B-]	1r	2g	2g
2F	2A	.	2f	2a
1G	1B-y	2r	1d	2g
.	.	2d	.	[2b-y
=147	=147	=147	=147	=147
2.G	1r	2d	2.B-y	2b-]
.	.	2d	.	2b-y
4F	.	.	4c	.
2E	2r	2c	2G	2cc
2D	2d	[2B-y	2B-y	2f
=148	=148	=148	=148	=148
2E	2B-y	2B-]	2G	2g
2C	2c	2A	2E	2a
1BB-y	2d	1B-y	1F	2d
.	2d	.	.	[2b-y
=149	=149	=149	=149	=149
2G	2B-y	1r	0r	4b-]
.	.	.	.	4a
2E	2c	.	.	2g
2F	2d	2r	.	2f
[2G	[2B-y	2d	.	[2d
=150	=150	=150	=150	=150
2G]	2B-]	2B-y	1r	2d]
2F	2A	2c	.	1f
2D	1B-y	2d	2r	.
[2G	.	2d	[2B-y	2d
=151	=151	=151	=151	=151
2G]	0r	2B-y	2B-]	1g
2E	.	2c	2G	.
2F	.	2d	2A	2f
2G	.	[2B-y	2B-y	2e
=152	=152	=152	=152	=152
1F	0r	2B-]	1c	1.f
.	.	2A	.	.
1BB-y	.	1B-y	2d	.
.	.	.	2d	4e
.	.	.	.	4d
=153	=153	=153	=153	=153
1C	1G	0r	1c	1e
2BB-y	2B-y	.	2r	2d
2GG	2B-y	.	2d	[2g
=154	=154	=154	=154	=154
1D	2A	0r	2d	2g]
.	2A	.	2.d	2f#i
1GG	2G	.	.	[1g
.	.	.	4c	.
.	2G	.	4B-y	.
.	.	.	4A	.
=155	=155	=155	=155	=155
2r	1d	1G	4B-y	1g]
.	.	.	4A	.
2G	.	.	4B-y	.
.	.	.	4c	.
2G	2r	2B-y	4d	1r
.	.	.	4G	.
2G	2d	2B-y	[2g	.
=156	=156	=156	=156	=156
2D	2d	2A	2g]	2r
2F	1c	2A	2f#i	2a
2C	.	2G	1g	2cc
2E	[2B-y	2G	.	2g
=157	=157	=157	=157	=157
1D	2B-]	1d	1f	2a
.	2A	.	.	2dd
[1BB-y	2B-y	2r	2r	1dd
.	[2f	2d	2F	.
=158	=158	=158	=158	=158
2BB-]	2f]	2d	2F	0r
2FF	2f	1c	2A	.
2AA	2e	.	2A	.
2BB-y	2d	[2B-y	2D	.
=159	=159	=159	=159	=159
1FF	2c	2B-]	1F	1cc
.	2c	2A	.	.
2.BB-y	1B-y	2B-y	1F	2dd
.	.	[2f	.	2dd
4C	.	.	.	.
=160	=160	=160	=160	=160
4D	0r	2f]	2r	2dd
4E	.	.	.	.
2F	.	2f	2f	2.cc
2C	.	2e	2g	.
.	.	.	.	4b-y
2D	.	2d	2f	[2b-y
=161	=161	=161	=161	=161
2E	1r	2c	2g	4b-]
.	.	.	.	8aL
.	.	.	.	8gJ
2F	.	2c	4f	2a
.	.	.	4e	.
[1G	2r	1B-y	1d	1b-y
.	[2B-y	.	.	.
=162	=162	=162	=162	=162
2G]	2B-]	0r	2d	2b-y
2D	2d	.	1f	2.a
2F	2c	.	.	.
.	.	.	.	4g
2G	2B-y	.	2e	[2g
=163	=163	=163	=163	=163
1D	1A	1r	1d	2g]
.	.	.	.	2f#i
1GG	1G	2r	2d	1g
.	.	[2B-y	[2g	.
=164	=164	=164	=164	=164
1r	2B-y	2B-]	4g]	1r
.	.	.	4f	.
.	2A	2d	1f	.
1C	1G	2c	.	2r
.	.	2B-y	2e	2g
=165	=165	=165	=165	=165
1FF	1F	1A	1f	2a
.	.	.	.	2cc
[1GG	1r	1G	2r	2.b-y
.	.	.	[2d	.
.	.	.	.	4a
=166	=166	=166	=166	=166
2GG]	0r	2B-y	2d]	4g
.	.	.	.	4f
2AA	.	2A	2c	1f
2BB-y	.	1G	2d	.
2C	.	.	2c	2e
=167	=167	=167	=167	=167
2D	2d	1F	2A	1f
1BB-y	2d	.	1B-y	.
.	2d	1r	.	1r
2C	2e	.	4A	.
.	.	.	4G	.
=168	=168	=168	=168	=168
1D	2d	0r	1F	2.f
.	2d	.	.	.
.	.	.	.	4f
1E-i	2B-y	.	1r	2g
.	2c	.	.	2g
=169	=169	=169	=169	=169
1.D	1d	2d	1A	2f
.	.	2d	.	2dd
.	1r	2d	2F	2b-y
2C	.	2e	2G	2cc
=170	=170	=170	=170	=170
2G	0r	2d	1B-y	2dd
2D	.	2d	.	1b-y
1E	.	2B-y	1G	.
.	.	2c	.	4a
.	.	.	.	4g
=171	=171	=171	=171	=171
2D	2r	1d	2r	2f
2G	2d	.	2B-y	2r
4G	4d	1r	4B-y	1r
4G	4B-y	.	4G	.
4F	4c	.	4A	.
4D	4d	.	4B-y	.
=172	=172	=172	=172	=172
2E	2B-y	0r	2G	1r
2C	2c	.	2.g	.
2D	2A	.	.	2r
.	.	.	4e	.
2D	2A	.	4f#i	2a
.	.	.	4e	.
=173	=173	=173	=173	=173
2GG	1G	2r	1g	4b-y
.	.	.	.	4b-y
2B-y	.	2d	.	4a
.	.	.	.	4b-y
4B-y	1r	4d	1r	2.g
4G	.	4B-y	.	.
4A	.	4c	.	.
4B-y	.	4d	.	4d
=174	=174	=174	=174	=174
2G	0r	2B-y	1r	4e
.	.	.	.	4d
2C	.	2c	.	1g
2D	.	2A	1d	.
2D	.	2A	.	2f#i
=175	=175	=175	=175	=175
1GG	0r	1G	2B-y	1g
.	.	.	2B-y	.
2r	.	1r	[1B-y	2r
2GG	.	.	.	2d
=176	=176	=176	=176	=176
2GG	2r	0r	2B-]	2d
2GG	2G	.	2B-y	2d
2C	2G	.	2c	2e
2C	2G	.	2c	2e
=177	=177	=177	=177	=177
2BB-y	2B-y	0r	1d	2d
2GG	2B-y	.	.	1g
1D	2A	.	1d	.
.	2A	.	.	2f#i
=178	=178	=178	=178	=178
1GG	1G	2r	2r	0g
.	.	2G	2B-y	.
2r	1d	2G	2B-y	.
[2G	.	2G	2B-y	.
=179	=179	=179	=179	=179
2G]	1r	2B-y	2G	1r
4F	.	2B-y	2G	.
4E	.	.	.	.
1F	2r	2A	1D	1a
.	2d	2A	.	.
=180	=180	=180	=180	=180
2G	2d	1G	1r	2b-y
2C	2c	.	.	2g
2r	2B-y	1d	2r	[1b-y
[2G	2B-y	.	2d	.
=181	=181	=181	=181	=181
2G]	2d	1r	2B-y	2b-]
2E	1c	.	2c	4a
.	.	.	.	4g
2F	.	2r	2.d	2f
2G	[2B-y	2d	.	2d
.	.	.	4e	.
=182	=182	=182	=182	=182
2F	2B-]	2d	1.f	1a
2F	2A	2c	.	.
[1BB-y	1B-y	2B-y	.	2.d
.	.	2B-y	2d	.
.	.	.	.	4e
=183	=183	=183	=183	=183
2BB-]	0r	2d	2B-y	4f
.	.	.	.	4g
2AA	.	1c	2c	2a
1BB-y	.	.	1d	2f
.	.	[2B-y	.	2d
=184	=184	=184	=184	=184
1C	1r	2B-]	1c	1e
.	.	2A	.	.
2GG	2r	1B-y	2B-y	[1d
[2G	[2B-y	.	[2b-y	.
=185	=185	=185	=185	=185
2G]	2B-]	0r	2b-]	2d]
2D	2d	.	2b-y	1f
2F	2c	.	2a	.
2G	2B-y	.	[2g	2e
=186	=186	=186	=186	=186
1D	1A	1r	2g]	1d
.	.	.	2f#i	.
1GG	1G	2r	2g	2r
.	.	[2B-y	[2G	[2b-y
=187	=187	=187	=187	=187
0r	1r	2B-]	2G]	2b-]
.	.	2d	2D	2b-y
.	2r	2c	2F	2a
.	2d	2B-y	2G	[2g
=188	=188	=188	=188	=188
1r	2d	1A	1D	2g]
.	2d	.	.	2f#i
2r	2d	1G	2d	1g
2C	2c	.	2e	.
=189	=189	=189	=189	=189
2D	2A	1r	2f	0r
2.BB-y	1B-y	.	2.d	.
.	.	2r	.	.
4C	.	.	4e	.
2D	2A	2d	2f	.
=190	=190	=190	=190	=190
4GG	1G	2d	1g	0r
4AA	.	.	.	.
4BB-y	.	2d	.	.
4C	.	.	.	.
4D	1F	2d	1r	.
4E	.	.	.	.
[2F	.	2c	.	.
=191	=191	=191	=191	=191
4F]	0r	2A	1r	0r
4D	.	.	.	.
1G	.	1B-y	.	.
.	.	.	2d	.
[2F	.	2A	2d	.
=192	=192	=192	=192	=192
2F]	0r	1G	1c	1g
2E	.	.	.	.
1F	.	1F	1A	1a
=193	=193	=193	=193	=193
*M3/1	*M3/1	*M3/1	*M3/1	*M3/1
*met(O3)	*met(O3)	*met(O3)	*met(O3)	*met(O3)
1G	1d	0.r	1B-y	1.g
1C	1e	.	1c	.
.	.	.	.	2e
1D	1d	.	1A	1f
=194	=194	=194	=194	=194
1E	1B-y	0.r	1.G	1g
1C	1c	.	.	1e
.	.	.	2E	.
1BB-y	1d	.	1F	1d
=195	=195	=195	=195	=195
1GG	1B-y	1d	0G	2d
.	.	.	.	1g
1C	1c	1e	.	.
.	.	.	.	2e
1D	1A	1d	1r	1f
=196	=196	=196	=196	=196
1E	1.G	1B-y	0.r	1g
1C	.	1c	.	1e
.	2E	.	.	.
1BB-y	1F	1d	.	1d
=197	=197	=197	=197	=197
1.E-i	0G	1B-y	1.g	0.r
.	.	1c	.	.
2C	.	.	2e	.
1D	1r	1A	1f	.
=198	=198	=198	=198	=198
1BB-y	1d	1.G	0g	0.r
1C	1e	.	.	.
.	.	2E	.	.
1D	1d	1F#i	1r	.
=199	=199	=199	=199	=199
1GG	1B-y	0G	2r	0.r
.	.	.	1g	.
1C	1c	.	.	.
.	.	.	2e	.
1BB-y	1d	1r	1f	.
=200	=200	=200	=200	=200
1GG	1B-y	1d	0g	2r
.	.	.	.	1g
1C	2c	1e	.	.
.	2c	.	.	2e
1D	1A	1d	1r	1f
=201	=201	=201	=201	=201
1G	1G	1B-y	1r	1g
1F	0r	1c	0f	1a
1D	.	1d	.	1f
=202	=202	=202	=202	=202
1E	0.r	1B-y	0e	1.g
1C	.	2c	.	.
.	.	2c	.	4f#i
.	.	.	.	4e
1D	.	1A	[1d	1f#i
=203	=203	=203	=203	=203
1BB-y	[0.Gl	[0.Gl	1d]	[0.gl
0C	.	.	0c	.
=204	=204	=204	=204	=204
[0.GGl	0.G_	0.G_	0.B-y	0.g_
=205	=205	=205	=205	=205
00GG]	00G]	00G]	00dl	00g]
==	==	==	==	==
*-	*-	*-	*-	*-
!!!system-decoration: [*]
!!!RDF**kern: i = editorial accidental
!!!RDF**kern: l = terminal long
!!!ENC: Benjamin Ory
!!!END: 2024/9/9
!!!EED: Benjamin Ory
!!!EEV: 2024/09/09
!!!YEC: Copyright 2024 Benjamin Ory, All Rights Reserved
!!!ONB: Translated from MusicXML on 2024/09/09